icons/svg/seamark_big/topmark_vertical_black_conepointdown_big.svg

<?xml version="1.0" encoding="UTF-8" standalone="no"?>
<svg
   xmlns:dc="http://purl.org/dc/elements/1.1/"
   xmlns:cc="http://creativecommons.org/ns#"
   xmlns:rdf="http://www.w3.org/1999/02/22-rdf-syntax-ns#"
   xmlns:svg="http://www.w3.org/2000/svg"
   xmlns="http://www.w3.org/2000/svg"
   xmlns:sodipodi="http://sodipodi.sourceforge.net/DTD/sodipodi-0.dtd"
   xmlns:inkscape="http://www.inkscape.org/namespaces/inkscape"
   width="1060"
   height="1060"
   id="svg2"
   version="1.1"
   inkscape:version="0.48.4 r9939"
   sodipodi:docname="topmark_vertical_black_2spheres_big.svg">
  <defs
     id="defs13">
    <inkscape:path-effect
       effect="gears"
       id="path-effect3774"
       is_visible="true"
       teeth="6"
       phi="-1.2" />
    <inkscape:path-effect
       effect="bend_path"
       id="path-effect3772"
       is_visible="false"
       bendpath="m 95.790098,316.51174 c 144.429032,-206.42506 223.313032,-11.7428 339.548092,0"
       prop_scale="1.19"
       scale_y_rel="false"
       vertical="false"
       bendpath-nodetypes="cc" />
  </defs>
  <sodipodi:namedview
     pagecolor="#ffffff"
     bordercolor="#666666"
     borderopacity="1"
     objecttolerance="10"
     gridtolerance="10"
     guidetolerance="10"
     inkscape:pageopacity="0"
     inkscape:pageshadow="2"
     inkscape:window-width="1920"
     inkscape:window-height="1004"
     id="namedview11"
     showgrid="false"
     inkscape:zoom="1.1508772"
     inkscape:cx="706.75757"
     inkscape:cy="631.5156"
     inkscape:window-x="1680"
     inkscape:window-y="0"
     inkscape:window-maximized="1"
     inkscape:current-layer="svg2" />
  <metadata
     id="metadata2975">image/svg+xmlen<rdf:RDF>
  <cc:Work
     rdf:about="">
    <dc:format>image/svg+xml</dc:format>
    <dc:type
       rdf:resource="http://purl.org/dc/dcmitype/StillImage" />
    <dc:title></dc:title>
  </cc:Work>
</rdf:RDF>
</metadata>
  <path
     style="font-size:medium;font-style:normal;font-variant:normal;font-weight:normal;font-stretch:normal;text-indent:0;text-align:start;text-decoration:none;line-height:normal;letter-spacing:normal;word-spacing:normal;text-transform:none;direction:ltr;block-progression:tb;writing-mode:lr-tb;text-anchor:start;baseline-shift:baseline;opacity:0.43913042;color:#000000;fill:#acd8f3;fill-opacity:1;fill-rule:nonzero;stroke:#a35151;stroke-width:0;stroke-linecap:round;stroke-linejoin:miter;stroke-miterlimit:4;stroke-opacity:1;stroke-dashoffset:0;marker:none;visibility:visible;display:inline;overflow:visible;enable-background:accumulate;font-family:Sans;-inkscape-font-specification:Sans"
     d="m 466.8069,59.29016 c -9.06415,0.006 -17.94937,5.17108 -22.44102,13.04407 -4.49164,7.87299 -4.41601,18.1499 0.19102,25.95593 l 47.09375,79.59375 0,327.84375 c 0.004,6.7649 2.78997,13.48677 7.57347,18.27028 4.78351,4.7835 11.50538,7.56988 18.27028,7.57347 l 25,0 c 6.7649,-0.004 13.48677,-2.78997 18.27028,-7.57347 4.7835,-4.78351 7.56988,-11.50538 7.57347,-18.27028 l 0,-331.28125 46.84375,-75.71875 c 4.80635,-7.78794 5.03559,-18.1848 0.57717,-26.17701 -4.45841,-7.99222 -13.4255,-13.25896 -22.57717,-13.26049 z"
     id="path4051"
     inkscape:connector-curvature="0"
     sodipodi:nodetypes="cscccsccscccscc" />
  <path
     style="color:#000000;fill:none;stroke:#000000;stroke-width:24.13866997;stroke-linecap:butt;stroke-linejoin:miter;stroke-miterlimit:4;stroke-opacity:1;stroke-dasharray:none;stroke-dashoffset:0;marker:none;visibility:visible;display:inline;overflow:visible;enable-background:accumulate"
     d="m 530.1819,508.48902 0,-415.554109"
     id="path3065-7"
     inkscape:connector-curvature="0" />
  <path
     inkscape:connector-curvature="0"
     style="fill:#000000;fill-opacity:1;stroke:none"
     d="m 593.38061,84.932044 -126.39742,-0.005 61.77975,104.402786"
     id="path3822-6-6"
     sodipodi:nodetypes="ccc" />
</svg>

<svg width="1060" height="1060" viewBox="0 0 1060 1060" fill="none" xmlns="http://www.w3.org/2000/svg">
<path opacity="0.43913" d="M466.807 59.29C457.743 59.296 448.858 64.4611 444.366 72.3341C439.874 80.2071 439.95 90.484 444.557 98.29L491.651 177.884V505.728C491.655 512.492 494.441 519.214 499.224 523.998C504.008 528.781 510.73 531.568 517.495 531.571H542.495C549.259 531.567 555.981 528.781 560.765 523.998C565.548 519.214 568.335 512.492 568.338 505.728V174.446L615.182 98.7275C619.988 90.9396 620.218 80.5427 615.759 72.5505C611.301 64.5583 602.334 59.2916 593.182 59.29H466.807Z" fill="#ACD8F3"/>
<path d="M530.182 508.489V92.9351" stroke="black" stroke-width="24.1387"/>
<path d="M593.381 84.9322L466.983 84.9272L528.763 189.33" fill="black"/>
</svg>
